src/assets/img/pencil.svg

<!-- Generated by IcoMoon.io -->
<svg version="1.1" xmlns="http://www.w3.org/2000/svg" width="32" height="32" viewBox="0 0 32 32">
<title>pencil</title>
<path d="M27 0c2.761 0 5 2.239 5 5 0 1.126-0.372 2.164-1 3l-2 2-7-7 2-2c0.836-0.628 1.874-1 3-1zM2 23l-2 9 9-2 18.5-18.5-7-7-18.5 18.5zM22.362 11.362l-14 14-1.724-1.724 14-14 1.724 1.724z"></path>
</svg>

<?xml version="1.0" encoding="UTF-8"?>
<svg width="32px" height="32px" viewBox="0 0 32 32" version="1.1" xmlns="http://www.w3.org/2000/svg" xmlns:xlink="http://www.w3.org/1999/xlink">
    <!-- Generator: Sketch 63.1 (92452) - https://sketch.com -->
    <title>pencil</title>
    <desc>Created with Sketch.</desc>
    <g id="Page-1" stroke="none" stroke-width="1" fill="none" fill-rule="evenodd">
        <g id="pencil" fill="#FFFFFF" fill-rule="nonzero">
            <path d="M27,0 C29.761,0 32,2.239 32,5 C32,6.126 31.628,7.164 31,8 L29,10 L22,3 L24,1 C24.836,0.372 25.874,0 27,0 Z M2,23 L0,32 L9,30 L27.5,11.5 L20.5,4.5 L2,23 Z M22.362,11.362 L8.362,25.362 L6.638,23.638 L20.638,9.638 L22.362,11.362 Z" id="Shape"></path>
        </g>
    </g>
</svg>
